X: 10297
T: Dolar Durba
R: polka
M: 2/4
K: Dmixolydian
|:D/E/F/G/ Ad|cc BG|cc BG|cG A2|
D/E/F/G/ Ad|cc BG|cG A/B/A/G/|FD D2:|
|:A/d/f Bd/f/|gd/e/ fd|A/d/f Bd/f/|ge f2|
A/d/f Bd/f/|gd/e/ fd|f/e/d/B/ A/B/A/G/|FD D2:|

